X:1
T:Cole Younger
M:6/8
L:1/4
K:F
 C/2| C C/2 F F/2| G A/2 B G/2| F D/2 C D/2| C3/2- C A/2| c/2c/2c/2 c A/2|\
 B- A/2 G F/2| F F/2 B A/2| G3/2- G A/4A/4| c c/2 c A/2| B B/2 BA/4-G/4|\
 F F/2 B A/2| G3/2- G G/2| C C/2 F/2F/2F/2| G A/2 c G/4G/4| F D/4D/4 C D/2|\
 F3/2- F||
